hosted/assets/icon/widgets/dark-mode/semi-circular-gauge.svg

<svg width="50" height="50" viewBox="0 0 50 50" fill="none" xmlns="http://www.w3.org/2000/svg">
<path fill-rule="evenodd" clip-rule="evenodd" d="M47.9137 27.0062L45.9211 26.834C45.9733 26.2301 46 25.6184 46 25C46 24.3816 45.9733 23.7699 45.9211 23.166L47.9137 22.9938C47.9708 23.6549 48 24.3241 48 25C48 25.6759 47.9708 26.345 47.9137 27.0062ZM47.6541 21.004L45.6841 21.3491C45.4708 20.1317 45.1527 18.9507 44.7395 17.8156L46.6188 17.1314C47.0718 18.3756 47.4204 19.67 47.6541 21.004ZM45.85 15.2774L44.038 16.1238C43.5184 15.0115 42.904 13.9519 42.2049 12.9554L43.8422 11.8068C44.6076 12.8979 45.2807 14.0586 45.85 15.2774ZM42.6196 10.2157L41.0881 11.502C40.3014 10.5655 39.4345 9.69855 38.498 8.91188L39.7843 7.38044C40.8095 8.24156 41.7584 9.19051 42.6196 10.2157ZM38.1932 6.15777L37.0446 7.79508C36.0481 7.09604 34.9885 6.48161 33.8762 5.96204L34.7226 4.14998C35.9414 4.7193 37.1021 5.39235 38.1932 6.15777ZM32.8686 3.3812L32.1844 5.26053C31.0493 4.84726 29.8683 4.52916 28.6509 4.3159L28.996 2.3459C30.33 2.57958 31.6244 2.92821 32.8686 3.3812ZM27.0062 2.08628L26.834 4.07886C26.2301 4.02667 25.6184 4 25 4C24.3816 4 23.7699 4.02667 23.166 4.07886L22.9938 2.08628C23.655 2.02916 24.3241 2 25 2C25.6759 2 26.345 2.02916 27.0062 2.08628ZM21.004 2.3459L21.3491 4.3159C20.1317 4.52916 18.9507 4.84727 17.8156 5.26053L17.1314 3.3812C18.3756 2.92821 19.67 2.57958 21.004 2.3459ZM15.2774 4.14999L16.1238 5.96204C15.0115 6.48162 13.9519 7.09604 12.9554 7.79509L11.8068 6.15777C12.8979 5.39235 14.0586 4.71931 15.2774 4.14999ZM10.2157 7.38044L11.502 8.91188C10.5655 9.69855 9.69855 10.5655 8.91188 11.502L7.38044 10.2157C8.24156 9.19051 9.19051 8.24157 10.2157 7.38044ZM6.15777 11.8068L7.79508 12.9554C7.09604 13.9519 6.48161 15.0115 5.96204 16.1238L4.14998 15.2774C4.7193 14.0586 5.39235 12.8979 6.15777 11.8068ZM3.3812 17.1314L5.26053 17.8156C4.84726 18.9507 4.52916 20.1317 4.3159 21.3491L2.3459 21.004C2.57958 19.6701 2.92821 18.3756 3.3812 17.1314ZM2.08628 22.9938C2.02916 23.655 2 24.3241 2 25C2 25.6759 2.02916 26.345 2.08628 27.0062L4.07886 26.834C4.02667 26.2301 4 25.6184 4 25C4 24.3816 4.02667 23.7699 4.07886 23.166L2.08628 22.9938ZM2.3459 28.996L4.3159 28.6509C4.52916 29.8683 4.84727 31.0493 5.26053 32.1845L3.3812 32.8686C2.92821 31.6244 2.57958 30.33 2.3459 28.996ZM4.14999 34.7226L5.96204 33.8762C6.48162 34.9885 7.09604 36.0481 7.79509 37.0446L6.15777 38.1932C5.39235 37.1021 4.71931 35.9414 4.14999 34.7226ZM7.38044 39.7843L8.91188 38.498C9.69855 39.4345 10.5655 40.3015 11.502 41.0881L10.2157 42.6196C9.19051 41.7584 8.24157 40.8095 7.38044 39.7843ZM11.8068 43.8422L12.9554 42.2049C13.9519 42.904 15.0115 43.5184 16.1238 44.038L15.2774 45.85C14.0586 45.2807 12.8979 44.6076 11.8068 43.8422ZM17.1314 46.6188L17.8156 44.7395C18.9507 45.1527 20.1317 45.4708 21.3491 45.6841L21.004 47.6541C19.67 47.4204 18.3756 47.0718 17.1314 46.6188ZM22.9938 47.9137L23.166 45.9211C23.7699 45.9733 24.3816 46 25 46C25.6184 46 26.2301 45.9733 26.834 45.9211L27.0062 47.9137C26.3451 47.9708 25.6759 48 25 48C24.3241 48 23.655 47.9708 22.9938 47.9137ZM28.996 47.6541L28.6509 45.6841C29.8683 45.4708 31.0493 45.1527 32.1845 44.7395L32.8686 46.6188C31.6244 47.0718 30.33 47.4204 28.996 47.6541ZM34.7226 45.85L33.8762 44.038C34.9885 43.5184 36.0481 42.904 37.0446 42.2049L38.1932 43.8422C37.1021 44.6076 35.9414 45.2807 34.7226 45.85ZM39.7843 42.6196L38.498 41.0881C39.4345 40.3014 40.3015 39.4345 41.0881 38.498L42.6196 39.7843C41.7584 40.8095 40.8095 41.7584 39.7843 42.6196ZM43.8422 38.1932L42.2049 37.0446C42.904 36.0481 43.5184 34.9885 44.038 33.8762L45.85 34.7226C45.2807 35.9414 44.6076 37.1021 43.8422 38.1932ZM46.6188 32.8686L44.7395 32.1844C45.1527 31.0493 45.4708 29.8683 45.6841 28.6509L47.6541 28.996C47.4204 30.33 47.0718 31.6244 46.6188 32.8686Z" fill="white"/>
<path fill-rule="evenodd" clip-rule="evenodd" d="M25 4C13.402 4 4 13.402 4 25H2C2 12.2975 12.2975 2 25 2C37.7025 2 48 12.2975 48 25H46C46 13.402 36.598 4 25 4Z" fill="white"/>
<rect x="26" y="22" width="16" height="6" rx="3" fill="#C89000"/>
<path fill-rule="evenodd" clip-rule="evenodd" d="M25 25C25 22.7909 26.7909 21 29 21H39C41.2091 21 43 22.7909 43 25C43 27.2091 41.2091 29 39 29H29C26.7909 29 25 27.2091 25 25ZM29 23C27.8954 23 27 23.8954 27 25C27 26.1046 27.8954 27 29 27H39C40.1046 27 41 26.1046 41 25C41 23.8954 40.1046 23 39 23H29Z" fill="white"/>
</svg>

<svg width="50" height="50" fill="none" xmlns="http://www.w3.org/2000/svg"><path fill-rule="evenodd" clip-rule="evenodd" d="M47.914 27.006l-1.993-.172a21.293 21.293 0 000-3.668l1.993-.172a23.312 23.312 0 010 4.012zm-.26-6.002l-1.97.345a20.841 20.841 0 00-.944-3.533l1.879-.685a22.831 22.831 0 011.035 3.873zm-1.804-5.727l-1.812.847a20.973 20.973 0 00-1.833-3.169l1.637-1.148a22.975 22.975 0 012.008 3.47zm-3.23-5.061l-1.532 1.286a21.15 21.15 0 00-2.59-2.59l1.286-1.532a23.145 23.145 0 012.836 2.836zm-4.427-4.058l-1.148 1.637a20.975 20.975 0 00-3.169-1.833l.847-1.812c1.218.57 2.38 1.242 3.47 2.008zM32.87 3.38l-.685 1.88a20.83 20.83 0 00-3.533-.945l.345-1.97A22.83 22.83 0 0132.87 3.38zm-5.863-1.295l-.172 1.993a21.297 21.297 0 00-3.668 0l-.172-1.993a23.305 23.305 0 014.012 0zm-6.002.26l.345 1.97a20.832 20.832 0 00-3.533.945l-.685-1.88a22.83 22.83 0 013.873-1.035zM15.277 4.15l.847 1.812a20.975 20.975 0 00-3.169 1.833l-1.148-1.637a22.975 22.975 0 013.47-2.008zm-5.061 3.23l1.286 1.532a21.147 21.147 0 00-2.59 2.59L7.38 10.216a23.14 23.14 0 012.836-2.836zm-4.058 4.427l1.637 1.148a20.975 20.975 0 00-1.833 3.169l-1.812-.847a22.975 22.975 0 012.008-3.47zM3.38 17.13l1.88.685a20.83 20.83 0 00-.945 3.533l-1.97-.345A22.833 22.833 0 013.38 17.13zm-1.295 5.863a23.305 23.305 0 000 4.012l1.993-.172a21.297 21.297 0 010-3.668l-1.993-.172zm.26 6.002l1.97-.345c.213 1.217.531 2.398.945 3.534l-1.88.684a22.83 22.83 0 01-1.035-3.873zm1.804 5.727l1.812-.847a20.975 20.975 0 001.833 3.169l-1.637 1.148a22.975 22.975 0 01-2.008-3.47zm3.23 5.061l1.532-1.286a21.142 21.142 0 002.59 2.59l-1.286 1.532a23.146 23.146 0 01-2.836-2.836zm4.427 4.058l1.148-1.637a21.011 21.011 0 003.169 1.833l-.847 1.812a22.975 22.975 0 01-3.47-2.008zm5.324 2.777l.685-1.88c1.135.414 2.316.732 3.533.945l-.345 1.97a22.831 22.831 0 01-3.873-1.035zm5.863 1.295l.172-1.993a21.293 21.293 0 003.668 0l.172 1.993a23.312 23.312 0 01-4.012 0zm6.002-.26l-.345-1.97a20.845 20.845 0 003.534-.944l.684 1.879a22.831 22.831 0 01-3.873 1.035zm5.727-1.804l-.847-1.812a20.973 20.973 0 003.169-1.833l1.148 1.637a22.975 22.975 0 01-3.47 2.008zm5.061-3.23l-1.286-1.532a21.144 21.144 0 002.59-2.59l1.532 1.286a23.15 23.15 0 01-2.836 2.836zm4.058-4.427l-1.637-1.148a21.011 21.011 0 001.833-3.169l1.812.847a22.975 22.975 0 01-2.008 3.47zm2.777-5.324l-1.88-.685c.414-1.135.732-2.316.945-3.533l1.97.345a22.831 22.831 0 01-1.035 3.873z" fill="#fff"/><path fill-rule="evenodd" clip-rule="evenodd" d="M25 4C13.402 4 4 13.402 4 25H2C2 12.297 12.297 2 25 2s23 10.297 23 23h-2c0-11.598-9.402-21-21-21z" fill="#fff"/><rect x="26" y="22" width="16" height="6" rx="3" fill="#C89000"/><path fill-rule="evenodd" clip-rule="evenodd" d="M25 25a4 4 0 014-4h10a4 4 0 010 8H29a4 4 0 01-4-4zm4-2a2 2 0 100 4h10a2 2 0 100-4H29z" fill="#fff"/></svg>
